;FLAVOR:Marlin
;TIME:223
;Filament used: 1.32975m
;Layer height: 1
;Generated with Cura_SteamEngine 3.1.0-BETA
M104 S205
M109 S205
M82 ; absolute extrusion mode
G28 ;Home
G1 Z15.0 F6000 ;Move the platform down 15mm
;Prime the extruder
G92 E0
G1 F200 E3
G92 E0
;LAYER_COUNT:21
;LAYER:0
M107
G0 F3600 X59.4 Y59.4 Z1
;TYPE:WALL-INNER
G1 F1800 X40.6 Y59.4 E3.16249
G1 X40.6 Y40.6 E6.32498
G1 X59.4 Y40.6 E9.48748
G1 X59.4 Y59.4 E12.64997
G0 F3600 X59.8 Y59.8
;TYPE:WALL-OUTER
G1 F1800 X40.2 Y59.8 E15.94704
G1 X40.2 Y40.2 E19.2441
G1 X59.8 Y40.2 E22.54117
G1 X59.8 Y59.8 E25.83823
G0 F3600 X59.6 Y59.8
G0 X59.33 Y59.33
G0 X59.01 Y59.01
;TYPE:SKIN
G1 F1800 X40.99 Y59.01 E28.86952
G1 X40.99 Y40.99 E31.9008
G1 X59.01 Y40.99 E34.93208
G1 X59.01 Y59.01 E37.96336
G0 F3600 X58.829 Y41.293
G0 X58.767 Y41.231
G1 F1800 X58.484 Y41.514 E38.06014
G1 X58.899 Y41.929
G0 F3600 X58.829 Y42.424
G1 F1800 X57.574 Y41.169 E38.3587
G1 X57.504 Y41.099
G0 F3600 X57.009 Y41.169
G1 F1800 X58.829 Y42.99 E38.79179
G1 X58.899 Y43.06
G0 F3600 X58.829 Y43.556
G1 F1800 X56.443 Y41.169 E39.35953
G1 X56.373 Y41.099
G0 F3600 X55.877 Y41.169
G1 F1800 X58.829 Y44.122 E40.06192
G1 X58.899 Y44.192
G0 F3600 X58.829 Y44.687
G1 F1800 X55.312 Y41.169 E40.89871
G1 X55.242 Y41.099
G0 F3600 X54.746 Y41.169
G1 F1800 X58.829 Y45.253 E41.87016
G1 X58.899 Y45.323
G0 F3600 X58.829 Y45.819
G1 F1800 X54.18 Y41.169 E42.97626
G1 X54.11 Y41.099
G0 F3600 X53.614 Y41.169
G1 F1800 X58.829 Y46.384 E44.21688
G1 X58.899 Y46.454
G0 F3600 X58.829 Y46.95
G1 F1800 X53.049 Y41.169 E45.59204
G1 X52.979 Y41.099
G0 F3600 X52.483 Y41.169
G1 F1800 X58.829 Y47.516 E47.10185
G1 X58.899 Y47.586
G0 F3600 X58.829 Y48.081
G1 F1800 X51.917 Y41.169 E48.74618
G1 X51.847 Y41.099
G0 F3600 X51.352 Y41.169
G1 F1800 X58.829 Y48.647 E50.52505
G1 X58.899 Y48.717
G0 F3600 X58.829 Y49.213
G1 F1800 X50.786 Y41.169 E52.43856
G1 X50.716 Y41.099
G0 F3600 X50.22 Y41.169
G1 F1800 X58.829 Y49.778 E54.4866
G1 X58.899 Y49.848
G0 F3600 X58.829 Y50.344
G1 F1800 X49.655 Y41.169 E56.66918
G1 X49.585 Y41.099
G0 F3600 X49.089 Y41.169
G1 F1800 X58.829 Y50.91 E58.9864
G1 X58.899 Y50.98
G0 F3600 X58.829 Y51.475
G1 F1800 X48.523 Y41.169 E61.43815
G1 X48.453 Y41.099
G0 F3600 X47.958 Y41.169
G1 F1800 X58.829 Y52.041 E64.02444
G1 X58.899 Y52.111
G0 F3600 X58.829 Y52.607
G1 F1800 X47.392 Y41.169 E66.74537
G1 X47.322 Y41.099
G0 F3600 X46.826 Y41.169
G1 F1800 X58.829 Y53.173 E69.60095
G1 X58.899 Y53.243
G0 F3600 X58.829 Y53.738
G1 F1800 X46.261 Y41.169 E72.59094
G1 X46.191 Y41.099
G0 F3600 X45.695 Y41.169
G1 F1800 X58.829 Y54.304 E75.71558
G1 X58.899 Y54.374
G0 F3600 X58.829 Y54.87
G1 F1800 X45.129 Y41.169 E78.97487
G1 X45.059 Y41.099
G0 F3600 X44.563 Y41.169
G1 F1800 X58.829 Y55.435 E82.36869
G1 X58.899 Y55.505
G0 F3600 X58.829 Y56.001
G1 F1800 X43.998 Y41.169 E85.89704
G1 X43.928 Y41.099
G0 F3600 X43.432 Y41.169
G1 F1800 X58.829 Y56.567 E89.56004
G1 X58.899 Y56.637
G0 F3600 X58.829 Y57.132
G1 F1800 X42.866 Y41.169 E93.35757
G1 X42.796 Y41.099
G0 F3600 X42.301 Y41.169
G1 F1800 X58.829 Y57.698 E97.28963
G1 X58.899 Y57.768
G0 F3600 X58.829 Y58.264
G1 F1800 X41.735 Y41.169 E101.35634
G1 X41.665 Y41.099
G0 F3600 X41.169 Y41.169
G1 F1800 X58.829 Y58.829 E105.55758
G1 X58.899 Y58.899
G0 F3600 X58.263 Y58.829
G1 F1800 X41.169 Y41.735 E109.62417
G1 X41.099 Y41.665
G0 F3600 X41.169 Y42.301
G1 F1800 X57.697 Y58.829 E113.55611
G1 X57.767 Y58.899
G0 F3600 X57.132 Y58.829
G1 F1800 X41.169 Y42.866 E117.35364
G1 X41.099 Y42.796
G0 F3600 X41.169 Y43.432
G1 F1800 X56.566 Y58.829 E121.01652
G1 X56.636 Y58.899
G0 F3600 X56 Y58.829
G1 F1800 X41.169 Y43.998 E124.54475
G1 X41.099 Y43.928
G0 F3600 X41.169 Y44.563
G1 F1800 X55.435 Y58.829 E127.93857
G1 X55.505 Y58.899
G0 F3600 X54.869 Y58.829
G1 F1800 X41.169 Y45.129 E131.19774
G1 X41.099 Y45.059
G0 F3600 X41.169 Y45.695
G1 F1800 X54.303 Y58.829 E134.32226
G1 X54.373 Y58.899
G0 F3600 X53.737 Y58.829
G1 F1800 X41.169 Y46.261 E137.31214
G1 X41.099 Y46.191
G0 F3600 X41.169 Y46.826
G1 F1800 X53.172 Y58.829 E140.1676
G1 X53.242 Y58.899
G0 F3600 X52.606 Y58.829
G1 F1800 X41.169 Y47.392 E142.88841
G1 X41.099 Y47.322
G0 F3600 X41.169 Y47.958
G1 F1800 X52.04 Y58.829 E145.47458
G1 X52.11 Y58.899
G0 F3600 X51.475 Y58.829
G1 F1800 X41.169 Y48.523 E147.92633
G1 X41.099 Y48.453
G0 F3600 X41.169 Y49.089
G1 F1800 X50.909 Y58.829 E150.24343
G1 X50.979 Y58.899
G0 F3600 X50.343 Y58.829
G1 F1800 X41.169 Y49.655 E152.42589
G1 X41.099 Y49.585
G0 F3600 X41.169 Y50.22
G1 F1800 X49.778 Y58.829 E154.47393
G1 X49.848 Y58.899
G0 F3600 X49.212 Y58.829
G1 F1800 X41.169 Y50.786 E156.38733
G1 X41.099 Y50.716
G0 F3600 X41.169 Y51.352
G1 F1800 X48.646 Y58.829 E158.16607
G1 X48.716 Y58.899
G0 F3600 X48.081 Y58.829
G1 F1800 X41.169 Y51.917 E159.81041
G1 X41.099 Y51.847
G0 F3600 X41.169 Y52.483
G1 F1800 X47.515 Y58.829 E161.3201
G1 X47.585 Y58.899
G0 F3600 X46.949 Y58.829
G1 F1800 X41.169 Y53.049 E162.69513
G1 X41.099 Y52.979
G0 F3600 X41.169 Y53.614
G1 F1800 X46.384 Y58.829 E163.93576
G1 X46.454 Y58.899
G0 F3600 X45.818 Y58.829
G1 F1800 X41.169 Y54.18 E165.04174
G1 X41.099 Y54.11
G0 F3600 X41.169 Y54.746
G1 F1800 X45.252 Y58.829 E166.01306
G1 X45.322 Y58.899
G0 F3600 X44.687 Y58.829
G1 F1800 X41.169 Y55.312 E166.84986
G1 X41.099 Y55.242
G0 F3600 X41.169 Y55.877
G1 F1800 X44.121 Y58.829 E167.55213
G1 X44.191 Y58.899
G0 F3600 X43.555 Y58.829
G1 F1800 X41.169 Y56.443 E168.11975
G1 X41.099 Y56.373
G0 F3600 X41.169 Y57.009
G1 F1800 X42.989 Y58.829 E168.55272
G1 X43.059 Y58.899
G0 F3600 X42.424 Y58.829
G1 F1800 X41.169 Y57.574 E168.85128
G1 X41.099 Y57.504
G0 F3600 X41.169 Y58.14
G1 F1800 X41.858 Y58.829 E169.01519
G1 X41.928 Y58.899
G0 F3600 X41.292 Y58.829
G1 F1800 X41.169 Y58.706 E169.04445
G0 F3600 X40.759 Y40.759
;TIME_ELAPSED:37.025276
;LAYER:1
M106 S255
G0 F5400 X40.759 Y40.759 Z2
;TYPE:FILL
G1 F2700 X59.239 Y59.239 E173.44076
G1 X59.309 Y59.309
G0 F5400 X59.3 Y59.309
G0 X59.239 Y57.73
G1 F2700 X57.729 Y59.239 E173.79987
G1 X57.659 Y59.309
G0 F5400 X57.659 Y59.3
G0 X53.582 Y59.239
G1 F2700 X40.759 Y46.416 E176.8504
G1 X40.689 Y46.346
G0 F5400 X40.7 Y46.346
G0 X40.759 Y47.925
G1 F2700 X47.925 Y40.759 E178.55516
G1 X47.995 Y40.689
G0 F5400 X47.995 Y40.7
G0 X46.416 Y40.759
G1 F2700 X59.239 Y53.583 E181.60582
G1 X59.309 Y53.653
G0 F5400 X59.3 Y53.653
G0 X59.239 Y52.073
G1 F2700 X52.072 Y59.239 E183.3107
G1 X52.002 Y59.309
G0 F5400 X52.002 Y59.3
G0 X47.925 Y59.239
G1 F2700 X40.759 Y52.073 E185.01546
G1 X40.689 Y52.003
G0 F5400 X40.7 Y52.003
G0 X40.759 Y53.582
G1 F2700 X53.582 Y40.759 E188.066
G1 X53.652 Y40.689
G0 F5400 X53.652 Y40.7
G0 X52.073 Y40.759
G1 F2700 X59.239 Y47.926 E189.77088
G1 X59.309 Y47.996
G0 F5400 X59.3 Y47.996
G0 X59.239 Y46.416
G1 F2700 X46.415 Y59.239 E192.82153
G1 X46.345 Y59.309
G0 F5400 X46.345 Y59.3
G0 X42.268 Y59.239
G1 F2700 X40.759 Y57.73 E193.18052
G1 X40.689 Y57.66
G0 F5400 X40.7 Y57.66
G0 X40.759 Y59.239
G1 F2700 X59.239 Y40.759 E197.57683
G1 X59.309 Y40.689
G0 F5400 X59.309 Y40.7
G0 X57.73 Y40.759
G1 F2700 X59.239 Y42.269 E197.93593
G1 X59.309 Y42.339
G0 F5400 X59.3 Y42.339
G0 X42.268 Y40.759
G1 F2700 X40.759 Y42.268 E198.29492
G1 X40.689 Y42.338
G0 F5400 X40.7 Y42.338
G0 X59.33 Y59.33
G0 X59.4 Y59.4
;TYPE:WALL-INNER
G1 F2700 X40.6 Y59.4 E201.45741
G1 X40.6 Y40.6 E204.6199
G1 X59.4 Y40.6 E207.78239
G1 X59.4 Y59.4 E210.94489
G0 F5400 X59.8 Y59.8
;TYPE:WALL-OUTER
G1 F1800 X40.2 Y59.8 E214.24195
G1 X40.2 Y40.2 E217.53902
G1 X59.8 Y40.2 E220.83609
G1 X59.8 Y59.8 E224.13315
G0 F5400 X59.6 Y59.8
G0 X59 Y59.118
G0 X40.759 Y40.759
;TIME_ELAPSED:46.899725
;LAYER:2
G0 F7200 X40.759 Y40.759 Z3
;TYPE:FILL
G1 F3600 X59.239 Y59.239 E228.52946
G1 X59.309 Y59.309
G0 F7200 X59.3 Y59.309
G0 X59.239 Y57.73
G1 F3600 X57.729 Y59.239 E228.88857
G1 X57.659 Y59.309
G0 F7200 X57.659 Y59.3
G0 X53.582 Y59.239
G1 F3600 X40.759 Y46.416 E231.9391
G1 X40.689 Y46.346
G0 F7200 X40.7 Y46.346
G0 X40.759 Y47.925
G1 F3600 X47.925 Y40.759 E233.64387
G1 X47.995 Y40.689
G0 F7200 X47.995 Y40.7
G0 X46.416 Y40.759
G1 F3600 X59.239 Y53.583 E236.69452
G1 X59.309 Y53.653
G0 F7200 X59.3 Y53.653
G0 X59.239 Y52.073
G1 F3600 X52.072 Y59.239 E238.3994
G1 X52.002 Y59.309
G0 F7200 X52.002 Y59.3
G0 X47.925 Y59.239
G1 F3600 X40.759 Y52.073 E240.10416
G1 X40.689 Y52.003
G0 F7200 X40.7 Y52.003
G0 X40.759 Y53.582
G1 F3600 X53.582 Y40.759 E243.1547
G1 X53.652 Y40.689
G0 F7200 X53.652 Y40.7
G0 X52.073 Y40.759
G1 F3600 X59.239 Y47.926 E244.85958
G1 X59.309 Y47.996
G0 F7200 X59.3 Y47.996
G0 X59.239 Y46.416
G1 F3600 X46.415 Y59.239 E247.91023
G1 X46.345 Y59.309
G0 F7200 X46.345 Y59.3
G0 X42.268 Y59.239
G1 F3600 X40.759 Y57.73 E248.26922
G1 X40.689 Y57.66
G0 F7200 X40.7 Y57.66
G0 X40.759 Y59.239
G1 F3600 X59.239 Y40.759 E252.66553
G1 X59.309 Y40.689
G0 F7200 X59.309 Y40.7
G0 X57.73 Y40.759
G1 F3600 X59.239 Y42.269 E253.02463
G1 X59.309 Y42.339
G0 F7200 X59.3 Y42.339
G0 X42.268 Y40.759
G1 F3600 X40.759 Y42.268 E253.38362
G1 X40.689 Y42.338
G0 F7200 X40.7 Y42.338
G0 X59.33 Y59.33
G0 X59.4 Y59.4
;TYPE:WALL-INNER
G1 F3600 X40.6 Y59.4 E256.54611
G1 X40.6 Y40.6 E259.7086
G1 X59.4 Y40.6 E262.8711
G1 X59.4 Y59.4 E266.03359
G0 F7200 X59.8 Y59.8
;TYPE:WALL-OUTER
G1 F1800 X40.2 Y59.8 E269.33065
G1 X40.2 Y40.2 E272.62772
G1 X59.8 Y40.2 E275.92479
G1 X59.8 Y59.8 E279.22185
G0 F7200 X59.6 Y59.8
G0 X59 Y59.118
G0 X40.759 Y40.759
;TIME_ELAPSED:55.263150
;LAYER:3
G0 X40.759 Y40.759 Z4
;TYPE:FILL
G1 F3600 X59.239 Y59.239 E283.61817
G1 X59.309 Y59.309
G0 F7200 X59.3 Y59.309
G0 X59.239 Y57.73
G1 F3600 X57.729 Y59.239 E283.97727
G1 X57.659 Y59.309
G0 F7200 X57.659 Y59.3
G0 X53.582 Y59.239
G1 F3600 X40.759 Y46.416 E287.02781
G1 X40.689 Y46.346
G0 F7200 X40.7 Y46.346
G0 X40.759 Y47.925
G1 F3600 X47.925 Y40.759 E288.73257
G1 X47.995 Y40.689
G0 F7200 X47.995 Y40.7
G0 X46.416 Y40.759
G1 F3600 X59.239 Y53.583 E291.78322
G1 X59.309 Y53.653
G0 F7200 X59.3 Y53.653
G0 X59.239 Y52.073
G1 F3600 X52.072 Y59.239 E293.4881
G1 X52.002 Y59.309
G0 F7200 X52.002 Y59.3
G0 X47.925 Y59.239
G1 F3600 X40.759 Y52.073 E295.19286
G1 X40.689 Y52.003
G0 F7200 X40.7 Y52.003
G0 X40.759 Y53.582
G1 F3600 X53.582 Y40.759 E298.2434
G1 X53.652 Y40.689
G0 F7200 X53.652 Y40.7
G0 X52.073 Y40.759
G1 F3600 X59.239 Y47.926 E299.94828
G1 X59.309 Y47.996
G0 F7200 X59.3 Y47.996
G0 X59.239 Y46.416
G1 F3600 X46.415 Y59.239 E302.99893
G1 X46.345 Y59.309
G0 F7200 X46.345 Y59.3
G0 X42.268 Y59.239
G1 F3600 X40.759 Y57.73 E303.35792
G1 X40.689 Y57.66
G0 F7200 X40.7 Y57.66
G0 X40.759 Y59.239
G1 F3600 X59.239 Y40.759 E307.75423
G1 X59.309 Y40.689
G0 F7200 X59.309 Y40.7
G0 X57.73 Y40.759
G1 F3600 X59.239 Y42.269 E308.11334
G1 X59.309 Y42.339
G0 F7200 X59.3 Y42.339
G0 X42.268 Y40.759
G1 F3600 X40.759 Y42.268 E308.47232
G1 X40.689 Y42.338
G0 F7200 X40.7 Y42.338
G0 X59.33 Y59.33
G0 X59.4 Y59.4
;TYPE:WALL-INNER
G1 F3600 X40.6 Y59.4 E311.63481
G1 X40.6 Y40.6 E314.7973
G1 X59.4 Y40.6 E317.9598
G1 X59.4 Y59.4 E321.12229
G0 F7200 X59.8 Y59.8
;TYPE:WALL-OUTER
G1 F1800 X40.2 Y59.8 E324.41936
G1 X40.2 Y40.2 E327.71642
G1 X59.8 Y40.2 E331.01349
G1 X59.8 Y59.8 E334.31055
G0 F7200 X59.6 Y59.8
G0 X59 Y59.118
G0 X40.759 Y40.759
;TIME_ELAPSED:63.626574
;LAYER:4
G0 X40.759 Y40.759 Z5
;TYPE:FILL
G1 F3600 X59.239 Y59.239 E338.70687
G1 X59.309 Y59.309
G0 F7200 X59.3 Y59.309
G0 X59.239 Y57.73
G1 F3600 X57.729 Y59.239 E339.06597
G1 X57.659 Y59.309
G0 F7200 X57.659 Y59.3
G0 X53.582 Y59.239
G1 F3600 X40.759 Y46.416 E342.11651
G1 X40.689 Y46.346
G0 F7200 X40.7 Y46.346
G0 X40.759 Y47.925
G1 F3600 X47.925 Y40.759 E343.82127
G1 X47.995 Y40.689
G0 F7200 X47.995 Y40.7
G0 X46.416 Y40.759
G1 F3600 X59.239 Y53.583 E346.87192
G1 X59.309 Y53.653
G0 F7200 X59.3 Y53.653
G0 X59.239 Y52.073
G1 F3600 X52.072 Y59.239 E348.5768
G1 X52.002 Y59.309
G0 F7200 X52.002 Y59.3
G0 X47.925 Y59.239
G1 F3600 X40.759 Y52.073 E350.28156
G1 X40.689 Y52.003
G0 F7200 X40.7 Y52.003
G0 X40.759 Y53.582
G1 F3600 X53.582 Y40.759 E353.3321
G1 X53.652 Y40.689
G0 F7200 X53.652 Y40.7
G0 X52.073 Y40.759
G1 F3600 X59.239 Y47.926 E355.03698
G1 X59.309 Y47.996
G0 F7200 X59.3 Y47.996
G0 X59.239 Y46.416
G1 F3600 X46.415 Y59.239 E358.08764
G1 X46.345 Y59.309
G0 F7200 X46.345 Y59.3
G0 X42.268 Y59.239
G1 F3600 X40.759 Y57.73 E358.44662
G1 X40.689 Y57.66
G0 F7200 X40.7 Y57.66
G0 X40.759 Y59.239
G1 F3600 X59.239 Y40.759 E362.84293
G1 X59.309 Y40.689
G0 F7200 X59.309 Y40.7
G0 X57.73 Y40.759
G1 F3600 X59.239 Y42.269 E363.20204
G1 X59.309 Y42.339
G0 F7200 X59.3 Y42.339
G0 X42.268 Y40.759
G1 F3600 X40.759 Y42.268 E363.56102
G1 X40.689 Y42.338
G0 F7200 X40.7 Y42.338
G0 X59.33 Y59.33
G0 X59.4 Y59.4
;TYPE:WALL-INNER
G1 F3600 X40.6 Y59.4 E366.72351
G1 X40.6 Y40.6 E369.88601
G1 X59.4 Y40.6 E373.0485
G1 X59.4 Y59.4 E376.21099
G0 F7200 X59.8 Y59.8
;TYPE:WALL-OUTER
G1 F1800 X40.2 Y59.8 E379.50806
G1 X40.2 Y40.2 E382.80512
G1 X59.8 Y40.2 E386.10219
G1 X59.8 Y59.8 E389.39926
G0 F7200 X59.6 Y59.8
G0 X59 Y59.118
G0 X40.759 Y40.759
;TIME_ELAPSED:71.989999
;LAYER:5
G0 X40.759 Y40.759 Z6
;TYPE:FILL
G1 F3600 X59.239 Y59.239 E393.79557
G1 X59.309 Y59.309
G0 F7200 X59.3 Y59.309
G0 X59.239 Y57.73
G1 F3600 X57.729 Y59.239 E394.15467
G1 X57.659 Y59.309
G0 F7200 X57.659 Y59.3
G0 X53.582 Y59.239
G1 F3600 X40.759 Y46.416 E397.20521
G1 X40.689 Y46.346
G0 F7200 X40.7 Y46.346
G0 X40.759 Y47.925
G1 F3600 X47.925 Y40.759 E398.90997
G1 X47.995 Y40.689
G0 F7200 X47.995 Y40.7
G0 X46.416 Y40.759
G1 F3600 X59.239 Y53.583 E401.96062
G1 X59.309 Y53.653
G0 F7200 X59.3 Y53.653
G0 X59.239 Y52.073
G1 F3600 X52.072 Y59.239 E403.6655
G1 X52.002 Y59.309
G0 F7200 X52.002 Y59.3
G0 X47.925 Y59.239
G1 F3600 X40.759 Y52.073 E405.37027
G1 X40.689 Y52.003
G0 F7200 X40.7 Y52.003
G0 X40.759 Y53.582
G1 F3600 X53.582 Y40.759 E408.4208
G1 X53.652 Y40.689
G0 F7200 X53.652 Y40.7
G0 X52.073 Y40.759
G1 F3600 X59.239 Y47.926 E410.12568
G1 X59.309 Y47.996
G0 F7200 X59.3 Y47.996
G0 X59.239 Y46.416
G1 F3600 X46.415 Y59.239 E413.17634
G1 X46.345 Y59.309
G0 F7200 X46.345 Y59.3
G0 X42.268 Y59.239
G1 F3600 X40.759 Y57.73 E413.53532
G1 X40.689 Y57.66
G0 F7200 X40.7 Y57.66
G0 X40.759 Y59.239
G1 F3600 X59.239 Y40.759 E417.93163
G1 X59.309 Y40.689
G0 F7200 X59.309 Y40.7
G0 X57.73 Y40.759
G1 F3600 X59.239 Y42.269 E418.29074
G1 X59.309 Y42.339
G0 F7200 X59.3 Y42.339
G0 X42.268 Y40.759
G1 F3600 X40.759 Y42.268 E418.64972
G1 X40.689 Y42.338
G0 F7200 X40.7 Y42.338
G0 X59.33 Y59.33
G0 X59.4 Y59.4
;TYPE:WALL-INNER
G1 F3600 X40.6 Y59.4 E421.81221
G1 X40.6 Y40.6 E424.97471
G1 X59.4 Y40.6 E428.1372
G1 X59.4 Y59.4 E431.29969
G0 F7200 X59.8 Y59.8
;TYPE:WALL-OUTER
G1 F1800 X40.2 Y59.8 E434.59676
G1 X40.2 Y40.2 E437.89382
G1 X59.8 Y40.2 E441.19089
G1 X59.8 Y59.8 E444.48796
G0 F7200 X59.6 Y59.8
G0 X59 Y59.118
G0 X40.759 Y40.759
;TIME_ELAPSED:80.353423
;LAYER:6
G0 X40.759 Y40.759 Z7
;TYPE:FILL
G1 F3600 X59.239 Y59.239 E448.88427
G1 X59.309 Y59.309
G0 F7200 X59.3 Y59.309
G0 X59.239 Y57.73
G1 F3600 X57.729 Y59.239 E449.24337
G1 X57.659 Y59.309
G0 F7200 X57.659 Y59.3
G0 X53.582 Y59.239
G1 F3600 X40.759 Y46.416 E452.29391
G1 X40.689 Y46.346
G0 F7200 X40.7 Y46.346
G0 X40.759 Y47.925
G1 F3600 X47.925 Y40.759 E453.99867
G1 X47.995 Y40.689
G0 F7200 X47.995 Y40.7
G0 X46.416 Y40.759
G1 F3600 X59.239 Y53.583 E457.04933
G1 X59.309 Y53.653
G0 F7200 X59.3 Y53.653
G0 X59.239 Y52.073
G1 F3600 X52.072 Y59.239 E458.75421
G1 X52.002 Y59.309
G0 F7200 X52.002 Y59.3
G0 X47.925 Y59.239
G1 F3600 X40.759 Y52.073 E460.45897
G1 X40.689 Y52.003
G0 F7200 X40.7 Y52.003
G0 X40.759 Y53.582
G1 F3600 X53.582 Y40.759 E463.5095
G1 X53.652 Y40.689
G0 F7200 X53.652 Y40.7
G0 X52.073 Y40.759
G1 F3600 X59.239 Y47.926 E465.21438
G1 X59.309 Y47.996
G0 F7200 X59.3 Y47.996
G0 X59.239 Y46.416
G1 F3600 X46.415 Y59.239 E468.26504
G1 X46.345 Y59.309
G0 F7200 X46.345 Y59.3
G0 X42.268 Y59.239
G1 F3600 X40.759 Y57.73 E468.62402
G1 X40.689 Y57.66
G0 F7200 X40.7 Y57.66
G0 X40.759 Y59.239
G1 F3600 X59.239 Y40.759 E473.02034
G1 X59.309 Y40.689
G0 F7200 X59.309 Y40.7
G0 X57.73 Y40.759
G1 F3600 X59.239 Y42.269 E473.37944
G1 X59.309 Y42.339
G0 F7200 X59.3 Y42.339
G0 X42.268 Y40.759
G1 F3600 X40.759 Y42.268 E473.73842
G1 X40.689 Y42.338
G0 F7200 X40.7 Y42.338
G0 X59.33 Y59.33
G0 X59.4 Y59.4
;TYPE:WALL-INNER
G1 F3600 X40.6 Y59.4 E476.90092
